!!!COM: Scriabin, Alexander
!!!OTL@@FR: Impromptu en fa dièse mineur
!!!OTL@@EN: Impromptu in F# Minor
!!!OPR@@FR: 2 Impromptus
!!!OPR@@EN: 2 Impromptus
!!!OPS: 10
!!!ONM: 1
!!!ODT: 1894
!!!AGN: Impromptu
**kern	**kern	**dynam
*staff2	*staff1	*staff1/2
*Ipiano	*Ipiano	*
*clefG2	*clefG2	*
*k[f#c#g#]	*k[f#c#g#]	*
*f#:	*f#:	*
*M3/4	*M3/4	*
=1	=1	=1
*^	*	*
2e#X	4rdd	8r	p
.	.	8cc#	.
.	2A 2c# 2cc#	8ccc#L	.
.	.	8gg#J	.
4f#	.	12aaL	<
.	.	12ee#X	(
.	.	12ff#J	[
*v	*v	*	*
=2	=2	=2
4r	8aaL	>
.	8eeJ	)
4A 4c# 4gn 4cc#	2ee	]
[4A 4c# 4g 4b	.	.
=3	=3	=3
*^	*	*
4ryy	4A] 4d 4f# 4a	8r	.
.	.	8dd	.
4d	2A 2f# 2dd	8ff#L	.
.	.	8cc#J	.
4B	.	12ddL	<
.	.	12a#X	(
.	.	12bJ	[
*v	*v	*	*
=4	=4	=4
4r	8ddL	>
.	8dJ	)
4G# 4B 4b	2d	]
4F# 4B 4a	.	.
=5	=5	=5
*^	*^	*
2.B	2E#X 2g#	4re	8rcc	<
.	.	.	[8d	(
.	.	4d]	8cc#L	(
.	.	.	8bJ	(
.	4F# 4f#	4a	12aL	[ >
.	.	.	12ee	)
.	.	.	12ddJ	]
!!LO:LB:g=original
=6	=6	=6	=6	=6
4d	2G# 2b	4re	8ree	<
.	.	.	[8e#X	(
8c#L	.	4e#]	8eenL	(
8BJ	.	.	8ddJ	(
4c#	4A 4a	4f#	12cc#L	(
.	.	.	12aa	(
.	.	.	12gg#J	[
=7	=7	=7	=7	=7
2B	4r	4re	8ff#L	>
.	.	.	8ee#X	)
.	8aL	4dd	8ff#	)
.	8g#J	.	8gg#	)
4B#X	8g#L	4dd 4ff#	8gg#	)
.	8f#J	.	8aaJ	)
=8	=8	=8	=8	=8
2c#	8aL	2dd 2ff#	8ccc#L	)
.	8g#J	.	8bbJ	)
.	4b	.	4ddd	]
4c#	8aL	4b	4ee#X	.
.	8g#J	.	.	.
*	*	*v	*v	*
=9	=9	=9	=9
[4f#	4r	8r	p
.	.	8ff#	.
4a#X	2d 2f#] 2ff#	8fff#L	.
.	.	8ccc#J	.
4b	.	12dddL	<
.	.	12aa#X	(
.	.	12bbJ	[
*v	*v	*	*
=10	=10	=10
4r	8dddL	>
.	8aanJ	)
4d 4f# 4ccn 4ff#	2aa	]
[4d 4f# 4cc 4ee	.	.
!!LO:LB:g=original
=11	=11	=11
*^	*	*
4ryy	4d] 4gn 4b 4dd	8r	.
.	.	8ggn	.
4g	2d 2b 2ggn	8bbL	.
.	.	8ff#J	.
4e	.	12ggL	<
.	.	12dd#X	(
.	.	12eeJ	[
*v	*v	*	*
=12	=12	=12
4r	8ggnL	>
.	8gnJ	)
4c# 4e 4ee	2g	]
4B 4e 4ee	.	.
=13	=13	=13
*^	*^	*
2.e	2A#X 2cc#	4re	8rcc	<
.	.	.	[8gn	(
.	.	4g]	8ff#L	(
.	.	.	8eeJ	(
.	4B 4b	4dd	12ddL	[ >
.	.	.	12aa	)
.	.	.	12ggnJ	]
=14	=14	=14	=14	=14
4gn	2c# 2ee	4re	8rcc	<
.	.	.	[8a#X	(
8f#L	.	4a#]	8aanL	(
8eJ	.	.	8ggnJ	(
4f#	4d 4dd	4b	12ff#L	(
.	.	.	12ddd	(
.	.	.	12ccc#J	[
*v	*v	*	*	*
*clefF4	*	*	*
=15	=15	=15	=15
4D	4re	8bbL	>
.	.	8gg#X	)
4B 4f# 4a	4ff#	8aa	)
.	.	8bb	)
4E 4d 4g#	8ffnL	8bb	)
.	8eeJ	8bb#XJ	]
!!LO:LB:g=original
=16	=16	=16	=16
*^	*	*	*
4rAA	8dL 8g#	2ee	8bb#XL	pp
.	8c#J 8a	.	8ccc#J	.
8rAA	4rc	.	4eee	.
8E	.	.	.	.
8F#L	4B#X 4g#	4re	4ee	.
8EJ	.	.	.	.
=17	=17	=17	=17	=17
4ryy	4AA	4re	8rcc	p
.	.	.	[8e	<
2E	4d 4g#	2e]	8eeL	(
.	.	.	8b#XJ	(
.	4c# 4a	.	12cc#L	(
.	.	.	12g#	(
.	.	.	12aJ	(
*	*	*v	*v	*
=18	=18	=18	=18
4GGn	8rA	8cc#L	(
.	8E	8c#J	(
4A	8eL	8c#	(
.	8B#XJ	8r	(
4E	12c#L	4r	(
.	12G#X	.	(
.	12AJ	.	[
*v	*v	*	*
=19	=19	=19
*	*^	*
8FF#L	4re	8ree	>
8E 8A#X	.	8gn	)
8Gn 8f#	8a#XL	8ff#L	)
8C#J 8A#	8gJ	8ee	)
[4G [4e	[4a#	8dd	)
.	.	8cc#J	)
=20	=20	=20	=20
8GL] 8e]	8a#L]	8cc#L	)
8F#J 8d	8bJ	8ddJ	)
8F# 8d	8b	8dd	)
8E#X	8ryy	8r	)
8GnL	4ryy	4r	]
8F#J	.	.	.
*	*v	*v	*
!!LO:LB:g=original
=21	=21	=21
*^	*	*
4ryy	4BB	8r	.
.	.	8f#	<
2F#	4e 4a#X	8ff#L	(
.	.	8cc#J	(
.	4d 4b	12ddL	(
.	.	12a#X	(
.	.	12bJ	(
=22	=22	=22	=22
4AA	8rA	8ddL	(
.	8F#	8dJ	(
4B	8f#L	8d	(
.	8c#J	8r	(
4F#	12dL	4r	(
.	12A#X	.	(
.	12BJ	.	[
*v	*v	*	*
=23	=23	=23
*	*^	*
8GG#L	4re	8ree	.
8F# 8B#X	.	8a	.
8A 8g#	8b#XL	8gg#L	.
8D#XJ 8B#	8aJ	8ff#	.
4A 4f#	4b#	8ee#X	.
.	.	8dd#XJ	.
=24	=24	=24	=24
*^	*	*	*
4ryy	4CC#	4re	8ree	.
.	.	.	8cc#	<
4.C# 4.e#X	4A	4f# 4a	8ee#XL	[
.	.	.	8cc#J	>
.	4G#	4e#X 4g#	4cc#	)
8GG#	.	.	.	]
*v	*v	*	*	*
=25	=25	=25	=25
4CC#	4re	8ree	.
.	.	8a	<
4C# 4A 4c#	4d 4f#	8cc#L	[ >
.	.	8aJ	)
8C# 8A 8c#	8e	8a	]
8FF#	8ryy	8r	>
!!LO:LB:g=original
=26	=26	=26	=26
4CC#	4re	8ree	.
.	.	8f#	.
4C# 4A	4B 4d	8aL	.
.	.	8f#J	.
8C# 8A	8c#	8f#	.
8FF#	8ryy	8r	.
=27	=27	=27	=27
4CC#	4re	8ree	.
.	.	8d	.
4C# 4F#	4G# 4B	8f#L	.
.	.	8dJ	.
8C# 8F#	4A	4d	.
8FF#	.	.	.
=28	=28	=28	=28
4CC# 4GG#	4E#X 4G#	8c#	.
.	.	8d	<
4GGGn 4GGn	[2E# [2B	8e#XL	[ >
.	.	8dJ	)
4GGG#X [4GG#X	.	4d	]
=29	=29	=29	=29
4CC# 4GG#]	4E#] 4B]	8c#	.
.	.	8d	<
4GGGn 4GGn	[2E#X [2B	8e#XL	[ >
.	.	8dJ	)
4GGG#X [4GG#X	.	4d	]
=30	=30	=30	=30
4CC# 4GG#]	4E#] 4B]	4c#	.
4B#X	4ryy	4r	.
4c#	4ryy	4r	.
*	*v	*v	*
=31	=31	=31
4d	2.r	.
4d#X	.	.
4e	.	.
*clefG2	*	*
!!LO:LB:g=original
=32	=32	=32
*^	*	*
2e#X	4rdd	8r	.
.	.	8cc#	<
.	2A 2c# 2cc#	8ccc#L	(
.	.	8gg#J	(
4f#	.	12aaL	(
.	.	12ee#X	(
.	.	12ff#J	[
=33	=33	=33	=33
*	*	*^	*
4rc	4gn	8rc	8aaL	.
.	.	8c#	8eeJ	>
4A 4c# 4g	4ree	8bL	2ee	)
.	.	8a	.	)
[4A 4c# 4g	4ree	8b	.	]
.	.	8cc#J	.	.
=34	=34	=34	=34	=34
4A] 4d 4f#	4ree	4f#	8ree	.
.	.	.	8dd	<
4d	2A 2f# 2dd	4re	8ff#L	(
.	.	.	8cc#XJ	(
4B	.	4re	12ddL	(
.	.	.	12a#X	(
.	.	.	12bJ	(
=35	=35	=35	=35	=35
4ryy	4r	8rc	8ddL	[
.	.	8cc#	8dJ	>
4G#	2B 2f#	8bL	2d	)
.	.	8a	.	)
4F#	.	8b	.	)
.	.	8cc#J	.	]
=36	=36	=36	=36	=36
2.B	4E 4g#X	4re	8rcc	<
.	.	.	[8d	(
.	4E#X 4gn	4d]	8cc#L	(
.	.	.	8bJ	(
.	4F# 4f#	4d	12bL	(
.	.	.	12ggn	(
.	.	.	12ff#J	[
!!LO:LB:g=original
=37	=37	=37	=37	=37
2.d	4Gn 4b	4re	8rcc	<
.	.	.	[8e#X	(
.	4G#X 4b-X	4e#]	8eenL	(
.	.	.	8ddJ	(
.	4A 4a	4f#	12ddL	(
.	.	.	12aa	(
.	.	.	12gg#J	[
=38	=38	=38	=38	=38
2B	4rcc	4re	8ff#L	>
.	.	.	8ee#X	)
.	8aL	4dd	8ff#	)
.	8g#J	.	8gg#	)
4B#X	8g#L	4dd 4ff#	8gg#	)
.	8f#J	.	8aaJ	)
=39	=39	=39	=39	=39
2c#	8aL	2dd 2ff#	8ccc#L	)
.	8g#J	.	8bbJ	)
.	4b	.	4ddd	)
4c#	8aL	4b	4ee#X	)
.	8g#J	.	.	]
*	*	*v	*v	*
=40	=40	=40	=40
[4f#	4rdd	8r	<
.	.	8ff#	(
4a#X	2d 2f#] 2ff#	8fff#L	(
.	.	8ccc#J	(
4b	.	12dddL	(
.	.	12aa#X	(
.	.	12bbJ	[
=41	=41	=41	=41
*	*	*^	*
4rc	4ccn	8rf	8dddL	>
.	.	8f#	8aaJ	)
4d 4f# 4cc	4raa	8eeL	2aa	)
.	.	8dd	.	)
4d 4f# 4cc	4raa	8ee	.	)
.	.	8ff#J	.	]
!!LO:LB:g=original
=42	=42	=42	=42	=42
4d 4gn 4b	4ryy	4b	8raa	<
.	.	.	8ggn	(
4g	2d 2b 2ggn	4re	8bbL	(
.	.	.	8ff#J	(
4e	.	4re	12ggL	(
.	.	.	12dd#X	(
.	.	.	12eeJ	[
=43	=43	=43	=43	=43
4re	4ree	8rf	8ggnL	>
.	.	8ff#	8gnJ	)
4c#	2e 2b	8eeL	2g	)
.	.	8dd	.	)
4B	.	8ee	.	)
.	.	8ff#J	.	]
=44	=44	=44	=44	=44
2.e	4A 4cc#	4re	8rcc	<
.	.	.	[8gn	(
.	4A#X 4ccn	4g]	8ff#L	(
.	.	.	8eeJ	(
.	4B 4b	4g	12ddL	(
.	.	.	12aa	(
.	.	.	12ggnJ	[
=45	=45	=45	=45	=45
4gn	2c# 2ee	4re	8rcc	<
.	.	.	[8a#X	(
8f#L	.	4a#]	8aanL	(
8eJ	.	.	8ggnJ	(
4f#	4d 4dd	4b	12ff#L	(
.	.	.	12ddd	(
.	.	.	12ccc#J	[
*v	*v	*	*	*
*clefF4	*	*	*
=46	=46	=46	=46
4C#	4rf	8bbL	<
.	.	8ee#X	.
4B 4f#	4dd	8ff#	.
.	.	8gg#	.
4B 4e#X	4dd	8gg#	.
.	.	8aaJ	.
!!LO:LB:g=original
=47	=47	=47	=47
4A 4f#	2.dd 2.ff#	8dddL	.
.	.	8aa	.
4C#	.	8aa	.
.	.	8bbJ	.
4r	.	4ccc#	.
=48	=48	=48	=48
4C#	4re	8ree	.
.	.	8e#X	.
4B	4d	8f#L	.
.	.	8g#	.
4e#X	4d	8g#	.
.	.	8aJ	.
=49	=49	=49	=49
4A 4f#	2d	8ddL	.
.	.	8a	.
4C#	.	8a	.
.	.	8bJ	.
4r	4rc	4cc#	.
=50	=50	=50	=50
4G# 4f#	2d#X	8cc#L	.
.	.	8g#	>
4C#	.	8g#	.
.	.	8a#XJ	.
4r	4rc	4b	.
*	*v	*v	*
=51	=51	=51
4B 4e#X	8cc#L	p
.	8c#	.
4..C#	8e#X	.
.	8d#X	.
.	8f#	.
.	8g#J	.
16FF# [16F#	.	.
!!LO:LB:g=original
=52	=52	=52
*k[f#c#g#d#a#e#]	*k[f#c#g#d#a#e#]	*
*	*^	*
4..C# 4..F#]	2.ryy	4A# 4c# 4f# 4a#	mf
.	.	4..B 4..c# 4..f# 4..g#	.
16CC# [16C#	.	.	.
8.FF# 8.C#]	.	.	.
16FF# [16F#	.	[16c# [16f# 16a#	< [
=53	=53	=53	=53
4..C# 4..F#]	4c#] 4f#]	8.A#L 8.cc#	>
.	.	16BJk 16g#	]
.	4ryy	4..B 4..c# 4..f# 4..g#	.
16CC# [16C#	.	.	.
8.FF# 8.C#]	4ryy	.	.
[16C#	.	16r	.
*	*v	*v	*
=54	=54	=54
8.FF#L 8.C#] 8.A#\	4f# 4a# 4cc# 4ff#	.
16AA#Jk [16A#	.	.
8.C#L 8.A#]	4e# 4a# 4cc# 4ee#	.
16AA#Jk [16A#	.	.
8.D#L 8.A#]	4d# 4f# 4cc# 4dd#	.
16D#Jk 16A#	.	.
=55	=55	=55
24G#LL	4d# 4f# 4b 4dd#	.
24A#	.	.
48d#Jk	.	.
48r	.	.
24c#L	.	.
24B	.	.
24A#JJ	.	.
4G#	4..c# 4..e# 4..b 4..cc#	.
8.C#	.	.
16GG# [16G#	16r	.
=56	=56	=56
*	*^	*
4..D# 4..G#]	2.ryy	4B 4d# 4g# 4b	.
.	.	4..c# 4..d# 4..g# 4..a#	.
16DD# [16D#	.	.	.
8.GG# 8.D#]	.	.	.
16GG# [16G#	.	[16d# [16g# 16b	.
=57	=57	=57	=57
4..D# 4..G#]	4d#] 4g#]	8.BL 8.dd#	.
.	.	16c#Jk 16a#	.
.	4ryy	4..c# 4..d# 4..g# 4..a#	.
16DD# [16D#	.	.	.
8.GG# 8.D#]	4ryy	.	.
[16D#	.	16r	.
*	*v	*v	*
!!LO:LB:g=original
=58	=58	=58
8.GG#L 8.D#] 8.B	4g# 4b 4dd# 4gg#	.
16D#Jk [16d#	.	.
8.A#L 8.d#]	4f# 4a# 4dd# 4ff#	.
16D#Jk [16d#	.	.
8.G#L 8.d#]	4f# 4b 4dd# 4ff#	.
16G#Jk 16d#	.	.
=59	=59	=59
24c#LL	4e# 4b 4cc# 4ee#	.
24d#	.	.
48g#Jk	.	.
48r	.	.
24f#L	.	.
24e#	.	.
24d#JJ	.	.
4c#	2f# 2a# 2cc# 2ff#	.
4F#	.	.
=60	=60	=60
*^	*	*
4D#	2.FF# 2.F#	4A# 4d# 4a#	.
4C#	.	2G##X 2d# 2g##X	.
4BB	.	.	.
=61	=61	=61	=61
4AA#	4FF# 4F#	8.d#L 8.a# 8.dd#	.
.	.	16A#Jk 16a#	.
2AA#	4EE# 4E#	2A# 2c##X 2g# 2a#	.
.	4EEn 4En	.	.
*v	*v	*	*
=62	=62	=62
4DD# 4D# 4A#	4f# 4a# 4dd# 4ff#	f
4GG# 4F# 4B	4f# 4b 4dd# 4ff#	.
4D# 4B 4f#	4g# 4dd# 4ff# 4gg#	.
=63	=63	=63
4C# 4B 4e#	[4g# 4cc# 4ee# [4gg#	.
4CC# 4C#	8g#L] 8gg#]	.
.	8a#J 8aa#	.
4r	8cc#L 8ccc#	.
.	8c#J 8cc#	.
!!LO:LB:g=original
=64	=64	=64
*	*^	*
16F#KL 16c# 16f#	8a#L	4cc# 4ff# 4aa#	ff
8.C#J 8.c#	.	.	.
.	8bJ	.	.
16F#KL 16c# 16g#	8bL	2cc# 2ff# 2gg#	.
8.C#J 8.c#	.	.	.
.	8a#J	.	.
12CC#L 12C#	8a#L	.	.
12CC# 12C#	.	.	.
.	8g#J	.	.
12FFF#J 12FF#	.	.	.
=65	=65	=65	=65
16F#KL 16c# 16f#	8a#L	8.cc#L 8.ff# 8.ccc#	.
8.C#J 8.c#	.	.	.
.	8bJ	.	.
.	.	16gg#Jk	.
16F#KL 16c# 16g#	8bL	2cc# 2ff# 2gg#	.
8.C#J 8.c#	.	.	.
.	8a#J	.	.
12CC#L 12C#	8a#L	.	.
12CC# 12C#	.	.	.
.	8g#J	.	.
12FFF#J 12FF#	.	.	.
*	*v	*v	*
=66	=66	=66
*^	*	*
12rAA	4A# 4f# 4cc#	4ff# 4aa# 4ccc# 4fff#	.
12FF#L 12F#	.	.	.
12AA#J 12A#	.	.	.
12rAA	4A# 4e# 4cc#	4ee# 4aa# 4ccc# 4eee#	.
12AA#L 12A#	.	.	.
12C#J 12c#	.	.	.
12rAA	4A# 4f# 4cc#	4dd# 4ff# 4aa# 4ddd#	.
12D#L 12d#	.	.	.
12F#J 12f#	.	.	.
=67	=67	=67	=67
12rAA	4B 4f# 4b	4dd# 4ff# 4bb 4ddd#	.
12G#L 12g#	.	.	.
12BJ 12b	.	.	.
12rAA	4B 4f# 4b	4ddn 4ff# 4bb 4dddn	.
12BBL 12B	.	.	.
12GG#J 12G#	.	.	.
12rAA	4B 4dn 4e#X 4b	4ee#X 4bb 4ddd 4eee#X	.
12BBL 12B	.	.	.
12GGnJ 12Gn	.	.	.
!!LO:LB:g=original
=68	=68	=68	=68
12rDD	4B 4dn 4f# 4b	4ff# 4bb 4dddn 4fff#	.
12BBL 12B	.	.	.
12DDnJ 12Dn	.	.	.
12rDD	4BB 4F# 4B	4dn 4f# 4b 4ddn	.
12BBBL 12BB	.	.	.
12GGG#J 12GG#	.	.	.
12rDD	4BB 4E#X 4B	4e#X 4b 4dd 4ee#X	.
12BBBL 12BB	.	.	.
12GGGnJ 12GGn	.	.	.
=69	=69	=69	=69
12rDD	4BB 4F# 4B	8f# 8b 8ff#	.
12BBBL 12BB	.	.	.
.	.	8f#	.
12DDDnJ 12DDn	.	.	.
! rinforzando	!	!	!LO:DY:b=2
4DDD 4DD	4rA	8.ff#L	sf
.	.	16bJk	.
4ryy	4r	4b	.
*v	*v	*	*
=70	=70	=70
2.r	8r	.
.	8e#	.
.	12f#L	.
.	12a#	.
.	12bJ	.
.	4ddn	.
=71	=71	=71
4DDn	8r	p
.	8f#	.
4AAn 4F# 4B#X	8.ff#L	.
.	16b#XJk	.
4r	4b#	.
=72	=72	=72
8r	8r	.
8DDn	8e#	.
12AAnL	12f#L	.
12F#	12g#	.
12B#XJ	12anJ	.
*clefG2	*	*
8ddn	8bb#X	.
8r	8r	.
*kcancel	*kcancel	*
!!LO:LB:g=original
=73	=73	=73
*k[f#c#g#]	*k[f#c#g#]	*
4A 4c# 4e#X 4cc#	8r	pp
.	8cc#	.
*clefF4	*	*
4C#	8ccc#L	.
.	8gg#J	.
*clefG2	*	*
4A 4c# 4f# 4cc#	12aaL	.
.	12ee#X	.
.	12ff#J	.
=74	=74	=74
*	*^	*
8A 8c# 8gn 8cc#	8rf	8aaL	.
*clefF4	*	*	*
8C#	8cc#	8eeJ	.
8AL	8bL	2ee	.
8e	8a	.	.
8a	8b	.	.
8gnJ	8cc#J	.	.
*clefG2	*	*	*
=75	=75	=75	=75
4A 4d 4a	4f#	8ree	.
.	.	8dd	.
*clefF4	*	*	*
4C#	4re	8ff#L	.
.	.	8cc#J	.
*clefG2	*	*	*
4A 4B 4f# 4b	4re	12ddL	.
.	.	12a#X	.
.	.	12bJ	.
=76	=76	=76	=76
8G# 8B 8f# 8b	8rf	8ddL	.
*clefF4	*	*	*
8C#	8cc#	8dJ	.
8F#L	8bL	2d	.
8B	8a	.	.
8g#	8b	.	.
8f#J	8cc#J	.	.
=77	=77	=77	=77
4G# 4e#X	4ryy	8r	.
.	.	[8d	.
4C#	4d_	8cc#L	<
.	.	8bJ	(
4A 4f#	4d]	12aL	(
.	.	12ee	(
.	.	12ddJ	(
*clefG2	*	*	*
!!LO:LB:g=original
=78	=78	=78	=78
4B 4g#	4ryy	8r	(
.	.	[8e#X	(
*clefF4	*	*	*
4C#	4e#]	8eenL	(
.	.	8ddJ	(
*clefG2	*	*	*
4A 4c# 4a	4f#	12cc#L	(
.	.	12aa	(
.	.	12ggJ	[
*clefF4	*	*	*
=79	=79	=79	=79
*^	*	*	*
4C#	4ryy	4re	8ff#L	>
.	.	.	8ee#J	)
*clefG2	*clefG2	*	*	*
4A 4B 4d	8aL	4dd	8ff#L	)
.	8g#J	.	8gg#J	)
4A 4B 4d	8g#L	4dd 4ff#	8gg#L	)
.	8f#J	.	8aaJ	)
=80	=80	=80	=80	=80
8AL	4B 4d 4f#	4dd 4ff#	8ccc#L	)
8G#J	.	.	8bbJ	)
4ryy	4G# 4d 4f# 4b	4dd 4ff#	4bb 4ddd	)
4c#	8aL	4b	4ee#X	)
.	8g#J	.	.	]
*v	*v	*	*	*
*	*v	*v	*
=81	=81	=81
4A#X 4d 4f# 4a#X 4ff#	8r	pp
.	8ff#	.
*clefF4	*	*
4C#	8fff#L	.
.	8ccc#J	.
*clefG2	*	*
4B 4d 4f# 4b 4ff#	12dddL	.
.	12aa#X	.
.	12bbJ	.
=82	=82	=82
*	*^	*
8cn 8d 8f# 8a 8ff#	8rf	8dddL	.
*clefF4	*	*	*
8C#	8ff#	8aaJ	.
8AL	8eeL	2aa	.
*clefG2	*	*	*
8f#	8dd	.	.
8dd	8ee	.	.
8ccnJ	8ff#J	.	.
!!LO:LB:g=original
=83	=83	=83	=83
4B 4d 4gn 4dd	4b	8rff	.
.	.	8ggn	.
*clefF4	*	*	*
4C#	4re	8bbL	.
.	.	8ff#J	.
*clefG2	*	*	*
4B 4e 4g 4ee	4re	12ggL	.
.	.	12dd#X	.
.	.	12eeJ	.
=84	=84	=84	=84
8B 8e 8cc#	8rf	8ggnL	.
*clefF4	*	*	*
8C#	8ff#	8gnJ	.
8BL	8eeL	2g	.
*clefG2	*	*	*
8e	8dd	.	.
8cc#	8ee	.	.
8bJ	8ff#J	.	.
=85	=85	=85	=85
4A#X 4e 4a#X	4re	8rcc	<
.	.	[8gn	(
*clefF4	*	*	*
4C#	4g_	8ff#L	(
.	.	8eeJ	(
*clefG2	*	*	*
4B 4d 4b	4g]	12ddL	(
.	.	12aa	(
.	.	12ggnJ	(
=86	=86	=86	=86
4c# 4e 4cc#	4re	8rcc	(
.	.	[8a#X	(
*clefF4	*	*	*
4C#	4a#]	8aanL	(
.	.	8ggnJ	(
*clefG2	*	*	*
4d 4f# 4dd	4b	12ff#L	(
.	.	12ddd	(
.	.	12ccc#J	[
*clefF4	*	*	*
=87	=87	=87	=87
*^	*	*	*
4C#	4ryy	4re	8bbL	>
.	.	.	8ee#X	)
*clefG2	*clefG2	*	*	*
4B	2A 2d 2f# 2a	2dd	8ff#	)
.	.	.	8gg#J	)
4B#X	.	.	4aa	)
*v	*v	*	*	*
*	*v	*v	*
*clefF4	*	*
!!LO:LB:g=original
=88	=88	=88
4C#	8r	)
.	8ff# 8aa	)
*clefG2	*	*
4A 4c# 4f# 4a	8ff#L 8aa	)
.	8aJ 8cc#	)
4r	4a 4cc#	]
*clefF4	*	*
=89	=89	=89
4C#	8r	.
.	8c#	.
4B 4e#X	8dL	.
.	8B#X	.
4r	8c#	.
.	8aJ	.
=90	=90	=90
2.r	8g#L	.
.	8ddJ	.
.	4.cc#	.
.	8a	.
=91	=91	=91
*^	*^	*
12AL	4A	4re	8rcc	p
12f#	.	.	.	.
.	.	.	[8cc#	.
12c#J	.	.	.	.
12G#L	4G#	4cc#]	8ccc#L	.
12FF#	.	.	.	.
.	.	.	8gg#J	.
12C#J	.	.	.	.
12F#L	4F#	4re	12aaL	.
12a	.	.	12ee#X	.
12c#J	.	.	12ff#J	.
=92	=92	=92	=92	=92
12eL	4en	2.a 2.cc#	8aaL	.
12c#	.	.	.	.
.	.	.	8eeJ	.
12F#J	.	.	.	.
12F#L	4ryy	.	2ee	.
12FF#	.	.	.	.
12C#J	.	.	.	.
12AL	4ryy	.	.	.
12G#	.	.	.	.
12F#J	.	.	.	.
=93	=93	=93	=93	=93
12dL	4d	4re	8ree	.
12f#	.	.	.	.
.	.	.	8dd	.
12AJ	.	.	.	.
12c#L	4c#	4a	8ff#L	.
12FF#	.	.	.	.
.	.	.	8cc#J	.
12F#J	.	.	.	.
12BL	4B	4f#	12ddL	.
12d	.	.	12a#X	.
12F#J	.	.	12bJ	.
!!LO:LB:g=original
=94	=94	=94	=94	=94
12AL	4A	2.d 2.f#	8ddL	.
12cn	.	.	.	.
.	.	.	8aJ	.
12DJ	.	.	.	.
12DL	4ryy	.	2a	.
12FF#	.	.	.	.
12DJ	.	.	.	.
12cL	4ryy	.	.	.
12B	.	.	.	.
12AJ	.	.	.	.
=95	=95	=95	=95	=95
12AL	4A	4ryy	8r	.
12C#X	.	.	.	.
.	.	.	[8c#	.
12FF#J	.	.	.	.
12G#L	4G#	4c#]	8cc#L	.
12FF#	.	.	.	.
.	.	.	8g#J	.
12C#J	.	.	.	.
12F#L	4F#	4rA	12aL	.
12C#	.	.	12e#X	.
12FF#J	.	.	12f#J	.
=96	=96	=96	=96	=96
12E/L	4E\	2.A 2.c#	8aL	.
12C#	.	.	.	.
.	.	.	8eJ	.
12FF#J	.	.	.	.
12FF#L	2ryy	.	2e	.
12FFF#	.	.	.	.
12FF#J	.	.	.	.
12FF#L	.	.	.	.
12E	.	.	.	.
12C#J	.	.	.	.
=97	=97	=97	=97	=97
12D/L	4D\	4re	8ree	.
12FF#	.	.	.	.
.	.	.	8d	.
12FFF#J	.	.	.	.
12C#/L	4C#\	4A	8f#L	.
12FFF#	.	.	.	.
.	.	.	8c#J	.
12FF#J	.	.	.	.
12BB/L	4BB\	4F#	12dL	.
12FF#	.	.	12A#X	.
12FFF#J	.	.	12BJ	.
!!LO:LB:g=original
=98	=98	=98	=98	=98
12AA/L	4AA\	2D 2F#	8dL	.
12FF#	.	.	.	.
.	.	.	8AJ	.
12FF#J	.	.	.	.
12FFF#L	2ryy	.	4A	.
12FF#	.	.	.	.
12DJ	.	.	.	.
12cnL	.	4ryy	4r	.
12B	.	.	.	.
12AJ	.	.	.	.
*v	*v	*	*	*
=99	=99	=99	=99
[2.FF# [2.D [2.B	4ryy	8r	.
.	.	[8d	.
.	2d]	8ddL	.
.	.	8a#XJ	.
.	.	12bL	.
.	.	12f#	.
.	.	12gnJ	.
*	*v	*v	*
=100	=100	=100
2.FF#] 2.D] 2.B]	8bL	.
.	8BJ	.
.	2B	.
=101	=101	=101
*^	*	*
2.FF# 2.D	2G#	8e#XL	.
.	.	8E#XJ	.
.	.	2E#	.
.	4Gn	.	.
=102	=102	=102	=102
4FF# 4D	2F#	2B 2f#	.
4BBB	.	.	.
*	*	*^	*
4ryy	4r	8G#L	4rcc	.
.	.	[8A#XJ	.	.
*	*	*v	*v	*
*v	*v	*	*
=103	=103	=103
[2.FFF# [2.FF# [2.C#	2.A#X_ [2.f# [2.cc#	.
=104	=104	=104
2FFF#] 2FF#] 2C#]	2A#] 2f#] 2cc#]	.
4r	4r	.
==	==	==
*-	*-	*-
!!!filter: flipper -a
!!!RDF**dynam: > = dim.
!!!system-decoration: {(*)}
!!!ENC: Bryan Jacob Bell
!!!END: November 2021 to April 2022
!!!PED: M.P. Belaieff
